icon-themes/breeze_svg/cmd/sc_connectorcirclestart.svg

<svg viewBox="0 0 16 16" xmlns="http://www.w3.org/2000/svg">/&gt;<path d="m3.5 2c-.82843 0-1.5.67157-1.5 1.5s.67157 1.5 1.5 1.5c.65584 0 1.20241-.4136 1.40625-1h.09375 3v9h.5 2.5 1v-1h-1-2v-8-1h-1.5-2.5-.09375c-.20384-.58642-.75041-1-1.40625-1zm0 1c.27614 0 .5.22386.5.5s-.22386.5-.5.5-.5-.22386-.5-.5.22386-.5.5-.5z" fill="#4d4d4d"/></svg>

<svg xmlns="http://www.w3.org/2000/svg" viewBox="0 0 16 16">
     />
 <path 
     style="fill:#4d4d4d" 
     d="M 3.5 2 C 2.67157 2 2 2.67157 2 3.5 C 2 4.32843 2.67157 5 3.5 5 C 4.15584 5 4.70241 4.5864 4.90625 4 L 5 4 L 8 4 L 8 13 L 8.5 13 L 11 13 L 12 13 L 12 12 L 11 12 L 9 12 L 9 4 L 9 3 L 7.5 3 L 5 3 L 4.90625 3 C 4.70241 2.41358 4.15584 2 3.5 2 z M 3.5 3 C 3.77614 3 4 3.22386 4 3.5 C 4 3.77614 3.77614 4 3.5 4 C 3.22386 4 3 3.77614 3 3.5 C 3 3.22386 3.22386 3 3.5 3 z "
     />
 </svg>
